X: 11872
T: Emily's Buzz
R: reel
M: 4/4
K: Dminor
ag|:fd~d2 dcAG|~F2DF EG,CE|FB,DF GC (3EFG|A=BcA dfeg
~f2fe dcAG|(3FED EC DCA,G,|A,D~D2 dcAG|1 (3FED EC D2ag:|2 (3FED EC D3G||
|:FA,~A,2 FGAc|~B2AB GFD2|(3efg ag fdcA|GBAG FDCD|
FC~C2 FGAc|~B2AB GFDC|A,D~D2 dcAG|1 (3FED EC D3G:|2 (3FED EC D2||

